Adwaita++-Light/panel/24/network-wired-secure.svg

<svg height="24" width="24" xmlns="http://www.w3.org/2000/svg">
  <g fill="#444">
    <path d="m6 6s-1 0-1 1v9c0 1 1 1 1 1h2l1 1h4v-2h-3l-1-1h-2v-7h10v4c.774415 0 1.470818.309484 2 .800781v-5.800781c0-1-1-1-1-1z"/>
    <path d="m17 13c-1.108 0-2 .91085-2 2.0312v.96875h-1v4h6v-4h-1v-.96875c0-1.1199-.892-2.0312-2-2.0312zm0 1c.554 0 1 .4424 1 1v1h-2v-1c0-.5576.446-1 1-1z"/>
  </g>
</svg>

<svg xmlns="http://www.w3.org/2000/svg" width="24" height="24" version="1.1">
 <defs>
  <style id="current-color-scheme" type="text/css">
   .ColorScheme-Text { color:#444444; } .ColorScheme-Highlight { color:#4285f4; }
  </style>
 </defs>
 <path style="fill:currentColor" class="ColorScheme-Text" d="M 6 6 C 6 6 5 6 5 7 L 5 16 C 5 17 6 17 6 17 L 8 17 L 9 18 L 13 18 L 13 16 L 10 16 L 9 15 L 7 15 L 7 8 L 17 8 L 17 12 C 17.774415 12 18.470818 12.309484 19 12.800781 L 19 7 C 19 6 18 6 18 6 L 6 6 z"/>
 <path style="fill:currentColor" class="ColorScheme-Text" d="m 17,13 c -1.108,0 -2,0.91085 -2,2.0312 l 0,0.96875 -1,0 0,4 6,0 0,-4 -1,0 0,-0.96875 C 19,13.9113 18.108,13 17,13 Z m 0,1 c 0.554,0 1,0.4424 1,1 l 0,1 -2,0 0,-1 c 0,-0.5576 0.446,-1 1,-1 z"/>
</svg>
